X:080 
T:Jack Wade the Piper* (reel) 
F:file ID: cre.4/080jack_wp
B:CRE4.175: gan ainm
N:Wade was the source of many of the tunes Breathnach used in CRE. 
I thought it would be appropriate to name a "gan ainm" after him 
for a change!
L:1/8
%Q:180
M:4/4
R:reel
K:Em
BE~E2 FEFA|Bd^ce dBAF|d2 fd e^cdB|AFDF E2 FA:|
Bd^ce dBAF|dfed Be e2|fgfe dfaf|(3gfe dA BE E2|
BE~E2 FEFA|Bd^ce dBAF|d2 fd e^cdB|AFDF E2DF||\
"final" E8||

